!!!OTL: 234. Shuster
!!!Genre:	Shuster
!!!Mode:	Minor
!!!Listening/dance:	dance
!!!One_Mode:	yes
**kern
*I"P1
*clefG2
*k[b-e-]
*g:
*M2/4
*>A
=1
8ggL
16ffL
16ee-JJ
4dd
=2
8ggL
16ffL
16ee-JJ
4dd
=3
8b-L
8b-J
8ccL
8ccJ
=4
8.b-L
16aJk
4g
=5:|!|:
*>B
8b-L
8b-
8cc
8ccJ
=6
8ddL
8ddJ
16ffLL
16ee-
16dd
16ccJJ
=7
8b-L
8b-
8cc
8ccJ
=8
8.b-L
16aJk
4g
=:|!
*-
